X:12852
T:Pastor
R:Tonada
C:Tradicional
S:Música Tradicional Asturiana, (C) Tello & Tito. Asturies, 2001.
S:http://pagina.de/MusTradAst <telloytito@asturies.org>
N:posible errata en |^GGA|
A:Asturies
B:Musicología Asturiana - La Canción Tradicional, Modesto González Cobas
Z:La Canción Tradicional, M.G.C.
M:3/8
L:1/8
Q:3/8=80
W:pastor que'estás en el monte de amores tan retirado
W:yo te vengo a proponer pastor si quisieras ser casado pastor pastor
K:Am
E
|AA^G|A2 ^G|A^GA|BcB|A2 G|(3F/G/F/ E2-|E z B|
|BcA|B2 G|FE F/ (3G/4F/4E/4|D2 D|
|^GGA|B2 A|ccB|A/-B/4B/4A/4G/4 F/G/4A/4G/4F/4|E3|



Xuacu Amieva 35
M:3/8
L:1/8
Q:3/8=80
W:Pastor que tas nel monte
W:y durmes per esas brañas
W:si te casaras conmigo, sí, sí, pastor,
W:durmieras en buena cama.
W:
W:Contesta'l bien del pastor
W:buena cama nun la quiero
W:tengo'l ganáu nel monte, sí, sí, adiós,
W:tengo que dime a por ello.
W:
W:Mira que cinta de pelu...,
W:delgadina de cintura,
W:si te casaras conmigo, sí, sí, pastor,
W:gozarías de mio hermosura.
W:
W:Contesta'l bien del pastor,
W:to hermosura nun la quiero,
W:tengo'l ganáu nel monte, sí, sí, adiós,
W:tengo que dime a por ello.
W:
W:Pastor que tas nel monte
W:y durmes ente'l h.elechu
W:si te casaras conmigo, sí, sí, pastor,
W:durmieras ente'l mio pechu.
W:
W:Contesta'l bien del pastor
W:ente tos pechos nun quiero
W:tengo'l ganáu nel monte, sí, sí, adios,
W:tengo que dime a por ello.
K:Cm
E
|G2 G|GGA|~G F2-|FGA|B2 ~c|B2 G|~A G2-|G2 E|
|G2 G|GA~G|FEG|EF~D|C3-|CDE|F2 ~G|F2 E|~D C2-|C3|



